svg/clockface/clockfacerectsolid/clock_11_35.svg

<?xml version="1.0" encoding="UTF-8" standalone="no"?>
<svg
   height="1000"
   width="1000"
   version="1.1"
   viewBox="0 0 1000 1000"
   id="svg7"
   sodipodi:docname="rect_solid_clock_11_35.svg"
   xmlns:inkscape="http://www.inkscape.org/namespaces/inkscape"
   xmlns:sodipodi="http://sodipodi.sourceforge.net/DTD/sodipodi-0.dtd"
   xmlns="http://www.w3.org/2000/svg"
   xmlns:svg="http://www.w3.org/2000/svg">
  <defs
     id="defs11" />
  <sodipodi:namedview
     id="namedview9"
     pagecolor="#505050"
     bordercolor="#ffffff"
     borderopacity="1"
     inkscape:showpageshadow="0"
     inkscape:pageopacity="0"
     inkscape:pagecheckerboard="1"
     inkscape:deskcolor="#505050" />
  <path
     id="path15"
     style="color:#000000;fill:#000000;stroke-width:60;stroke-linecap:round;stroke-linejoin:round;-inkscape-stroke:none"
     d="M 339 129 C 223.17927 129 129 223.17927 129 339 L 129 659 C 129 774.82073 223.17927 869 339 869 L 659 869 C 774.82073 869 869 774.82073 869 659 L 869 339 C 869 223.17927 774.82073 129 659 129 L 339 129 z M 410 314.11523 A 30 30 0 0 1 435.98047 329.11523 L 525.98047 485 A 30.003 30.003 0 0 1 525.98047 515 L 390.98047 748.82617 A 30 30 0 0 1 350 759.80859 A 30 30 0 0 1 335.25586 729.91211 A 30 30 0 0 1 339.01953 718.82617 L 465.35938 500 L 384.01953 359.11523 A 30 30 0 0 1 395 318.13477 A 30 30 0 0 1 410 314.11523 z " />
</svg>

<svg xmlns="http://www.w3.org/2000/svg" width="1000" height="1000"><path d="M339 129c-115.82 0-210 94.18-210 210v320c0 115.82 94.18 210 210 210h320c115.82 0 210-94.18 210-210V339c0-115.82-94.18-210-210-210H339zm71 185.115a30 30 0 0 1 25.98 15l90 155.885a30.003 30.003 0 0 1 0 30l-135 233.826A30 30 0 0 1 350 759.81a30 30 0 0 1-14.744-29.897 30 30 0 0 1 3.764-11.086L465.36 500l-81.34-140.885a30 30 0 0 1 10.98-40.98 30 30 0 0 1 15-4.02z" style="-inkscape-stroke:none" stroke-width="60" stroke-linecap="round" stroke-linejoin="round"/></svg>
